svgs/sharp-duotone-solid/road-barrier.svg

<svg xmlns="http://www.w3.org/2000/svg" viewBox="0 0 640 512"><!--! Font Awesome Pro 7.1.0 by @fontawesome - https://fontawesome.com License - https://fontawesome.com/license (Commercial License) Copyright 2025 Fonticons, Inc. --><path opacity=".4" fill="currentColor" d="M64 96L149.2 96 64 266.3 64 96zm42.8 192l90.6-181.3 5.4-10.7 74.3 0-90.6 181.3-5.4 10.7-74.3 0zm128 0l90.6-181.3 5.4-10.7 74.3 0-90.6 181.3-5.4 10.7-74.3 0zm128 0l90.6-181.3 5.4-10.7 74.3 0-90.6 181.3-5.4 10.7-74.3 0zm128 0l85.2-170.3 0 170.3-85.2 0z"/><path fill="currentColor" d="M64 32l0 448-64 0 0-448 64 0zm576 0l0 448-64 0 0-448 64 0z"/></svg>

<svg xmlns="http://www.w3.org/2000/svg" viewBox="0 0 640 512"><!--! Font Awesome Pro 6.6.0 by @fontawesome - https://fontawesome.com License - https://fontawesome.com/license (Commercial License) Copyright 2024 Fonticons, Inc. --><defs><style>.fa-secondary{opacity:.4}</style></defs><path class="fa-secondary" d="M64 96l85.2 0L64 266.3 64 96zm42.8 192l90.6-181.3L202.8 96l74.3 0L186.5 277.3 181.2 288l-74.3 0zm128 0l90.6-181.3L330.8 96l74.3 0L314.5 277.3 309.2 288l-74.3 0zm128 0l90.6-181.3L458.8 96l74.3 0L442.5 277.3 437.2 288l-74.3 0zm128 0L576 117.7 576 288l-85.2 0z"/><path class="fa-primary" d="M64 32l0 32 0 384 0 32L0 480l0-32L0 64 0 32l64 0zm576 0l0 32 0 384 0 32-64 0 0-32 0-384 0-32 64 0z"/></svg>
